X:33
T:Trip to Maidenhead THO1.033
M:6/8
L:1/8
Z:vmp. Peter Dunk 2012.from a transcription by Fynn Titford-Mock 2006
B:Thompson's Compleat Collection of 200 Favourite Country Dances Vol.I,1758
Q:3/8=90
K:F
c|A/B/cA FAc|f/g/a/g/f g2 c|A/B/cA FAc|\
a/g/f/g/a g2 c|A/B/cA FAc|f/g/a/g/f g2f//g//a/|
ge/f/g fed|cG/F/E/D/ C2::c|A/B/cA c/d/_ec|\
d/f/_e/d/c B2 d|=B/c/dB d/e/fd|
eg/f/e/d/ c2 g|a/g/fb g/f/ea|f/e/dg edc|dg/a/b abg|f3-f2:|

